apps/site/public/illustrations/enterprise/bgf.svg

<svg width="407" height="372" viewBox="-16 -16 407 372" fill="none" xmlns="http://www.w3.org/2000/svg">
<g opacity="0.55">
<path d="M53.5286 200.441L9.07545 274.144C-2.17986 292.806 11.2583 316.605 33.051 316.605H141.831V321.605H33.051C7.36665 321.605 -8.4721 293.555 4.79323 271.561L49.1965 197.94L53.5286 200.441ZM369.645 271.561C382.807 293.384 367.317 321.168 341.987 321.601L341.387 321.605H238.831V316.605H341.387C363.18 316.605 376.619 292.806 365.364 274.144L329.729 215.064L334.06 212.563L369.645 271.561ZM158.961 15.956C171.793 -5.31871 202.645 -5.31862 215.477 15.956L266.218 100.084L261.887 102.585L211.196 18.539C200.308 0.487506 174.13 0.48747 163.242 18.539L107.108 111.608L102.776 109.107L158.961 15.956Z" fill="url(#paint0_linear_25_14)" filter="url(#filter0_f_25_14)">
<animate attributeName="opacity" values="0.25;0.85;0.25" dur="4s" repeatCount="indefinite"/>
</path>
</g>
<path d="M53.5286 200.441L9.07545 274.144C-2.17986 292.806 11.2583 316.605 33.051 316.605H141.831V321.605H33.051C7.36665 321.605 -8.4721 293.555 4.79323 271.561L49.1965 197.94L53.5286 200.441ZM369.645 271.561C382.807 293.384 367.317 321.168 341.987 321.601L341.387 321.605H238.831V316.605H341.387C363.18 316.605 376.619 292.806 365.364 274.144L329.729 215.064L334.06 212.563L369.645 271.561ZM158.961 15.956C171.793 -5.31871 202.645 -5.31862 215.477 15.956L266.218 100.084L261.887 102.585L211.196 18.539C200.308 0.487506 174.13 0.48747 163.242 18.539L107.108 111.608L102.776 109.107L158.961 15.956Z" fill="url(#paint0_linear_25_14)"/>
<path d="M164.65 312.387C164.471 311.765 164.22 311.215 163.896 310.738C163.572 310.252 163.176 309.843 162.707 309.51C162.247 309.169 161.719 308.909 161.122 308.73C160.534 308.551 159.882 308.462 159.166 308.462C157.828 308.462 156.652 308.794 155.638 309.459C154.632 310.124 153.848 311.091 153.285 312.361C152.723 313.622 152.442 315.165 152.442 316.989C152.442 318.813 152.719 320.364 153.273 321.642C153.827 322.921 154.611 323.897 155.625 324.57C156.639 325.235 157.836 325.567 159.217 325.567C160.47 325.567 161.54 325.345 162.426 324.902C163.321 324.451 164.003 323.816 164.471 322.997C164.949 322.179 165.187 321.212 165.187 320.095L166.312 320.262H159.562V316.094H170.518V319.392C170.518 321.694 170.033 323.671 169.061 325.324C168.089 326.969 166.751 328.239 165.047 329.134C163.342 330.02 161.39 330.463 159.192 330.463C156.737 330.463 154.581 329.922 152.723 328.84C150.865 327.749 149.416 326.202 148.376 324.199C147.345 322.188 146.829 319.801 146.829 317.04C146.829 314.918 147.136 313.026 147.75 311.364C148.372 309.694 149.241 308.279 150.358 307.12C151.474 305.961 152.774 305.078 154.257 304.473C155.74 303.868 157.346 303.566 159.077 303.566C160.559 303.566 161.94 303.783 163.219 304.218C164.497 304.644 165.631 305.249 166.619 306.033C167.616 306.817 168.43 307.75 169.061 308.833C169.692 309.907 170.096 311.091 170.275 312.387H164.65ZM174.574 330.105V310.469H179.854V313.895H180.058C180.416 312.676 181.017 311.756 181.861 311.134C182.705 310.503 183.676 310.188 184.776 310.188C185.048 310.188 185.343 310.205 185.658 310.239C185.973 310.273 186.25 310.32 186.489 310.38V315.212C186.233 315.135 185.879 315.067 185.428 315.007C184.976 314.948 184.563 314.918 184.188 314.918C183.387 314.918 182.671 315.093 182.04 315.442C181.418 315.783 180.923 316.26 180.557 316.874C180.199 317.488 180.02 318.195 180.02 318.996V330.105H174.574ZM197.263 330.489C195.277 330.489 193.559 330.067 192.111 329.223C190.67 328.371 189.558 327.186 188.774 325.669C187.99 324.144 187.598 322.375 187.598 320.364C187.598 318.336 187.99 316.563 188.774 315.046C189.558 313.52 190.67 312.336 192.111 311.492C193.559 310.64 195.277 310.213 197.263 310.213C199.248 310.213 200.961 310.64 202.402 311.492C203.851 312.336 204.967 313.52 205.751 315.046C206.535 316.563 206.927 318.336 206.927 320.364C206.927 322.375 206.535 324.144 205.751 325.669C204.967 327.186 203.851 328.371 202.402 329.223C200.961 330.067 199.248 330.489 197.263 330.489ZM197.288 326.27C198.192 326.27 198.946 326.015 199.551 325.503C200.156 324.983 200.612 324.276 200.919 323.381C201.234 322.486 201.392 321.468 201.392 320.326C201.392 319.184 201.234 318.165 200.919 317.27C200.612 316.375 200.156 315.668 199.551 315.148C198.946 314.628 198.192 314.368 197.288 314.368C196.376 314.368 195.609 314.628 194.987 315.148C194.373 315.668 193.909 316.375 193.594 317.27C193.287 318.165 193.133 319.184 193.133 320.326C193.133 321.468 193.287 322.486 193.594 323.381C193.909 324.276 194.373 324.983 194.987 325.503C195.609 326.015 196.376 326.27 197.288 326.27ZM213.85 330.105L208.506 310.469H214.016L217.059 323.662H217.238L220.408 310.469H225.816L229.037 323.586H229.204L232.195 310.469H237.692L232.361 330.105H226.596L223.221 317.756H222.978L219.603 330.105H213.85Z" fill="white"/>
<path d="M260.853 115.926L283.527 102.835L292.195 117.848L288.243 120.13L282.343 109.911L276.94 113.031L282.264 122.253L278.312 124.535L272.987 115.312L263.621 120.72L260.853 115.926ZM274.715 140.702C273.722 138.982 273.228 137.284 273.235 135.607C273.253 133.934 273.722 132.378 274.644 130.941C275.573 129.499 276.909 128.275 278.651 127.27C280.407 126.255 282.139 125.708 283.845 125.629C285.558 125.545 287.14 125.916 288.591 126.742C290.053 127.57 291.281 128.844 292.274 130.564C293.267 132.284 293.754 133.981 293.736 135.654C293.73 137.331 293.262 138.89 292.333 140.332C291.411 141.769 290.072 142.995 288.316 144.009C286.574 145.015 284.846 145.56 283.133 145.644C281.427 145.723 279.843 145.348 278.38 144.52C276.929 143.694 275.708 142.422 274.715 140.702ZM278.381 138.615C278.833 139.397 279.431 139.922 280.177 140.191C280.929 140.455 281.77 140.496 282.698 140.314C283.631 140.14 284.592 139.767 285.581 139.196C286.57 138.625 287.373 137.98 287.991 137.259C288.612 136.546 288.997 135.797 289.144 135.013C289.292 134.229 289.14 133.446 288.688 132.664C288.232 131.874 287.624 131.34 286.862 131.061C286.105 130.789 285.261 130.741 284.328 130.915C283.4 131.097 282.441 131.473 281.452 132.044C280.463 132.615 279.657 133.257 279.036 133.971C278.418 134.691 278.038 135.447 277.895 136.238C277.763 137.033 277.925 137.825 278.381 138.615ZM281.65 151.947L298.655 142.129L301.295 146.701L298.328 148.414L298.43 148.591C299.665 148.292 300.762 148.352 301.723 148.772C302.691 149.187 303.45 149.871 304 150.823C304.136 151.059 304.268 151.322 304.397 151.613C304.525 151.903 304.623 152.166 304.69 152.402L300.505 154.819C300.444 154.559 300.326 154.218 300.152 153.797C299.978 153.376 299.797 153.004 299.609 152.679C299.209 151.985 298.7 151.452 298.082 151.081C297.475 150.713 296.815 150.523 296.1 150.513C295.39 150.509 294.688 150.708 293.994 151.109L284.373 156.663L281.65 151.947ZM311.735 164.783L308.192 166.829L302.28 156.588L305.822 154.542L311.735 164.783ZM311.239 154.515L313.962 159.232L298.108 168.385C297.672 168.636 297.371 168.899 297.204 169.172C297.045 169.442 296.985 169.722 297.026 170.014C297.07 170.313 297.184 170.621 297.368 170.938C297.495 171.159 297.642 171.37 297.807 171.57C297.979 171.766 298.11 171.917 298.2 172.022L295.119 174.79C294.909 174.597 294.632 174.313 294.289 173.941C293.938 173.572 293.575 173.088 293.199 172.488C292.499 171.377 292.075 170.294 291.927 169.237C291.784 168.188 291.942 167.216 292.4 166.322C292.858 165.428 293.646 164.663 294.765 164.027L311.239 154.515ZM296.503 177.674L313.509 167.856L316.232 172.572L299.226 182.39L296.503 177.674ZM317.069 168.959C316.664 168.258 316.549 167.522 316.725 166.752C316.911 165.985 317.333 165.412 317.99 165.032C318.64 164.657 319.34 164.583 320.09 164.809C320.852 165.038 321.436 165.503 321.841 166.204C322.245 166.906 322.354 167.64 322.168 168.407C321.992 169.177 321.58 169.75 320.93 170.125C320.274 170.504 319.564 170.579 318.802 170.35C318.051 170.124 317.474 169.661 317.069 168.959ZM323.693 185.495L320.15 187.541L314.091 177.045L317.633 175L323.693 185.495ZM302.015 187.22L320.249 176.693C321.482 175.981 322.643 175.631 323.732 175.642C324.825 175.66 325.817 175.973 326.709 176.58C327.601 177.187 328.355 178.025 328.973 179.096C329.391 179.819 329.717 180.512 329.952 181.173C330.19 181.842 330.351 182.35 330.432 182.697L326.404 183.901C326.356 183.682 326.28 183.421 326.174 183.118C326.072 182.823 325.94 182.535 325.778 182.254C325.377 181.56 324.936 181.171 324.454 181.085C323.978 180.995 323.453 181.117 322.877 181.449L304.731 191.926L302.015 187.22ZM303.655 204.788C303.31 204.19 303.034 203.602 302.827 203.022C302.618 202.455 302.485 201.96 302.429 201.54L306.563 200.57C306.713 201.222 306.909 201.773 307.149 202.225C307.395 202.683 307.722 203.011 308.131 203.208C308.544 203.412 309.076 203.464 309.727 203.364L310.606 203.226L324.577 187.026L327.44 191.986L316.985 202.717L317.087 202.894L331.627 199.237L334.51 204.231L311.85 208.5C310.752 208.711 309.706 208.74 308.711 208.586C307.714 208.443 306.792 208.065 305.945 207.452C305.092 206.842 304.328 205.954 303.655 204.788Z" fill="white"/>
<path d="M67.243 197.581L44.5689 184.49L49.8103 175.411C50.7734 173.743 51.8239 172.495 52.9619 171.666C54.0999 170.837 55.27 170.395 56.4722 170.341C57.667 170.283 58.8327 170.582 59.9694 171.239C60.8551 171.75 61.5315 172.377 61.9986 173.119C62.4584 173.857 62.7233 174.659 62.7934 175.526C62.8605 176.382 62.7546 177.256 62.4757 178.148L62.6972 178.275C63.2326 177.433 63.9428 176.766 64.8277 176.273C65.7169 175.772 66.7038 175.52 67.7884 175.517C68.8656 175.509 69.9615 175.827 71.076 176.47C72.2791 177.165 73.1805 178.084 73.78 179.227C74.3765 180.359 74.6133 181.662 74.4905 183.136C74.3676 184.61 73.8161 186.196 72.836 187.893L67.243 197.581ZM66.0915 190.524L68.3479 186.616C69.1192 185.28 69.427 184.159 69.2715 183.252C69.1085 182.341 68.5989 181.638 67.7427 181.144C67.1153 180.782 66.4744 180.614 65.8199 180.639C65.1655 180.665 64.5398 180.879 63.9428 181.283C63.3501 181.679 62.8322 182.26 62.389 183.028L60.0687 187.047L66.0915 190.524ZM56.8248 185.174L58.8766 181.62C59.2559 180.963 59.4781 180.314 59.5433 179.673C59.6055 179.02 59.5077 178.422 59.25 177.879C58.9967 177.33 58.5711 176.882 57.9732 176.537C57.1539 176.064 56.325 175.974 55.4865 176.268C54.6522 176.553 53.9282 177.228 53.3146 178.291L51.2116 181.933L56.8248 185.174ZM78.1477 161.972L68.3828 156.334L71.1058 151.617L88.1114 161.436L85.4971 165.964L82.4082 164.18L82.3059 164.358C83.0807 165.317 83.5129 166.417 83.6025 167.66C83.6964 168.895 83.3747 170.151 82.6375 171.428C81.9813 172.565 81.1455 173.416 80.1303 173.981C79.115 174.546 77.9907 174.797 76.7573 174.735C75.5282 174.665 74.2472 174.25 72.9144 173.49L62.0866 167.239L64.8097 162.523L74.796 168.288C75.8041 168.86 76.7531 169.049 77.643 168.854C78.5329 168.66 79.2357 168.116 79.7513 167.223C80.0794 166.654 80.2571 166.048 80.2842 165.405C80.304 164.757 80.143 164.132 79.801 163.531C79.4633 162.923 78.9122 162.403 78.1477 161.972ZM90.2895 157.663L73.2839 147.845L76.0069 143.128L93.0125 152.947L90.2895 157.663ZM72.4597 144.21C72.0549 144.911 71.4751 145.378 70.7203 145.612C69.9624 145.834 69.255 145.755 68.5981 145.376C67.9486 145.001 67.5341 144.432 67.3546 143.669C67.172 142.894 67.2831 142.156 67.6879 141.455C68.0928 140.754 68.6741 140.292 69.432 140.07C70.1868 139.837 70.8889 139.908 71.5384 140.283C72.1953 140.662 72.6151 141.239 72.7977 142.014C72.9772 142.777 72.8645 143.509 72.4597 144.21ZM75.2427 131.361L97.9168 144.452L95.1938 149.169L72.5197 136.078L75.2427 131.361ZM103.993 134.567C103.247 135.859 102.239 136.837 100.97 137.502C99.6976 138.155 98.2349 138.412 96.5822 138.275C94.9264 138.126 93.15 137.504 91.2531 136.409C89.3045 135.284 87.8655 134.035 86.9361 132.662C85.9993 131.284 85.5102 129.89 85.4689 128.478C85.4245 127.055 85.7624 125.72 86.4826 124.473C87.0323 123.521 87.6528 122.821 88.344 122.374C89.0321 121.915 89.729 121.628 90.4346 121.514C91.1371 121.388 91.7768 121.354 92.3537 121.412L92.4368 121.268L83.9119 116.346L86.6285 111.64L109.303 124.731L106.618 129.381L103.894 127.809L103.779 128.008C104.124 128.502 104.411 129.087 104.642 129.761C104.87 130.424 104.949 131.164 104.881 131.98C104.817 132.79 104.521 133.652 103.993 134.567ZM101.103 130.906C101.541 130.146 101.706 129.384 101.595 128.622C101.481 127.847 101.128 127.102 100.538 126.387C99.9509 125.665 99.1519 125.012 98.1408 124.428C97.1296 123.844 96.1703 123.477 95.2629 123.327C94.3555 123.177 93.5454 123.251 92.8326 123.548C92.1199 123.845 91.544 124.374 91.1051 125.134C90.6576 125.909 90.4909 126.684 90.6048 127.458C90.7187 128.232 91.0695 128.971 91.6573 129.675C92.2451 130.378 93.0298 131.013 94.0115 131.58C95.0005 132.151 95.954 132.519 96.8719 132.685C97.7867 132.839 98.6094 132.778 99.3401 132.501C100.068 132.213 100.655 131.681 101.103 130.906Z" fill="white"/>
<defs>
<filter id="filter0_f_25_14" x="-12" y="-16" width="398" height="348" filterUnits="userSpaceOnUse" color-interpolation-filters="sRGB">
<feFlood flood-opacity="0" result="BackgroundImageFix"/>
<feBlend mode="normal" in="SourceGraphic" in2="BackgroundImageFix" result="shape"/>
<feGaussianBlur stdDeviation="5" result="effect1_foregroundBlur_25_14">
<animate attributeName="stdDeviation" values="3;8;3" dur="4s" repeatCount="indefinite"/>
</feGaussianBlur>
</filter>
<linearGradient id="paint0_linear_25_14" x1="187.219" y1="23.1636" x2="187.219" y2="242.715" gradientUnits="userSpaceOnUse">
<stop stop-color="#4F46E5"/>
<stop offset="1" stop-color="#0D9488"/>
</linearGradient>
</defs>
</svg>

<svg xmlns="http://www.w3.org/2000/svg" width="407" height="372" fill="none" viewBox="-16 -16 407 372"><g opacity=".55"><path fill="url(#a)" d="M53.529 200.441 9.075 274.144c-11.255 18.662 2.183 42.461 23.976 42.461h108.78v5H33.051c-25.684 0-41.523-28.05-28.258-50.044l44.404-73.621zm316.116 71.12c13.162 21.823-2.328 49.607-27.658 50.04l-.6.004H238.831v-5h102.556c21.793 0 35.232-23.799 23.977-42.461l-35.635-59.08 4.331-2.501zM158.961 15.956c12.832-21.275 43.684-21.275 56.516 0l50.741 84.128-4.331 2.501-50.691-84.046c-10.888-18.051-37.066-18.052-47.954 0l-56.134 93.069-4.332-2.501z" filter="url(#b)"><animate attributeName="opacity" dur="4s" repeatCount="indefinite" values="0.25;0.85;0.25"/></path></g><path fill="url(#a)" d="M53.529 200.441 9.075 274.144c-11.255 18.662 2.183 42.461 23.976 42.461h108.78v5H33.051c-25.684 0-41.523-28.05-28.258-50.044l44.404-73.621zm316.116 71.12c13.162 21.823-2.328 49.607-27.658 50.04l-.6.004H238.831v-5h102.556c21.793 0 35.232-23.799 23.977-42.461l-35.635-59.08 4.331-2.501zM158.961 15.956c12.832-21.275 43.684-21.275 56.516 0l50.741 84.128-4.331 2.501-50.691-84.046c-10.888-18.051-37.066-18.052-47.954 0l-56.134 93.069-4.332-2.501z"/><path fill="#fff" d="M164.65 312.387a5.7 5.7 0 0 0-.754-1.649 4.7 4.7 0 0 0-1.189-1.228 5.1 5.1 0 0 0-1.585-.78 6.7 6.7 0 0 0-1.956-.268q-2.007 0-3.528.997-1.509.997-2.353 2.902-.843 1.892-.843 4.628t.831 4.653 2.352 2.928q1.52.997 3.592.997 1.88 0 3.209-.665 1.343-.677 2.045-1.905.716-1.227.716-2.902l1.125.167h-6.75v-4.168h10.956v3.298q0 3.453-1.457 5.932a9.94 9.94 0 0 1-4.014 3.81q-2.558 1.329-5.855 1.329-3.682 0-6.469-1.623-2.787-1.637-4.347-4.641-1.547-3.017-1.547-7.159 0-3.183.921-5.676.933-2.505 2.608-4.244a11.3 11.3 0 0 1 3.899-2.647q2.224-.907 4.82-.907 2.223 0 4.142.652a11 11 0 0 1 3.4 1.815 9.8 9.8 0 0 1 2.442 2.8 9.5 9.5 0 0 1 1.214 3.554zm9.924 17.718v-19.636h5.28v3.426h.204q.537-1.828 1.803-2.761 1.266-.946 2.915-.946.409 0 .882.051.472.051.831.141v4.832a7 7 0 0 0-1.061-.205 10 10 0 0 0-1.24-.089q-1.201 0-2.148.524a3.86 3.86 0 0 0-1.483 1.432q-.537.92-.537 2.122v11.109zm22.689.384q-2.98 0-5.152-1.266-2.161-1.278-3.337-3.554-1.176-2.288-1.176-5.305 0-3.042 1.176-5.318 1.176-2.288 3.337-3.554 2.173-1.278 5.152-1.279 2.977 0 5.139 1.279 2.173 1.266 3.349 3.554 1.176 2.276 1.176 5.318 0 3.017-1.176 5.305-1.176 2.276-3.349 3.554-2.162 1.266-5.139 1.266m.025-4.219q1.356 0 2.263-.767.908-.78 1.368-2.122.473-1.342.473-3.055t-.473-3.056q-.46-1.342-1.368-2.122-.907-.78-2.263-.78-1.368 0-2.301.78-.92.78-1.393 2.122-.46 1.343-.461 3.056 0 1.713.461 3.055.472 1.342 1.393 2.122.933.767 2.301.767m16.562 3.835-5.344-19.636h5.51l3.043 13.193h.179l3.17-13.193h5.408l3.221 13.117h.167l2.991-13.117h5.497l-5.331 19.636h-5.765l-3.375-12.349h-.243l-3.375 12.349zm47.003-214.179 22.674-13.091 8.668 15.013-3.952 2.282-5.9-10.219-5.403 3.12 5.324 9.222-3.952 2.282-5.325-9.223-9.366 5.408zm13.862 24.776q-1.49-2.58-1.48-5.095.027-2.51 1.409-4.666 1.394-2.163 4.007-3.671 2.634-1.522 5.194-1.641 2.57-.126 4.746 1.113 2.193 1.242 3.683 3.822t1.462 5.09q-.01 2.515-1.403 4.678-1.383 2.156-4.017 3.677-2.613 1.509-5.183 1.635a8.65 8.65 0 0 1-4.753-1.124q-2.176-1.239-3.665-3.818m3.666-2.087q.678 1.173 1.796 1.576 1.129.396 2.521.123 1.4-.261 2.883-1.118 1.483-.856 2.41-1.937.932-1.07 1.153-2.246.222-1.176-.456-2.349-.684-1.185-1.826-1.603-1.135-.407-2.534-.146-1.392.273-2.876 1.129t-2.416 1.927q-.927 1.08-1.141 2.267-.198 1.192.486 2.377m3.269 13.332 17.005-9.818 2.64 4.572-2.967 1.713.102.177q1.852-.449 3.293.181 1.452.623 2.277 2.051.204.354.397.79.192.435.293.789l-4.185 2.417a7 7 0 0 0-.353-1.022 9 9 0 0 0-.543-1.118q-.6-1.041-1.527-1.598a3.86 3.86 0 0 0-1.982-.568q-1.065-.006-2.106.596l-9.621 5.554zm30.085 12.836-3.543 2.046-5.912-10.241 3.542-2.046zm-.496-10.268 2.723 4.717-15.854 9.153q-.654.377-.904.787a1.27 1.27 0 0 0-.178.842q.066.449.342.924.191.332.439.632.258.294.393.452l-3.081 2.768a15 15 0 0 1-.83-.849q-.526-.553-1.09-1.453-1.05-1.666-1.272-3.251-.214-1.574.473-2.915t2.365-2.295zm-14.736 23.159 17.006-9.818 2.723 4.716-17.006 9.818zm20.566-8.715q-.608-1.052-.344-2.207.28-1.15 1.265-1.72.975-.562 2.1-.223a2.94 2.94 0 0 1 1.751 1.395q.606 1.053.327 2.203-.264 1.155-1.238 1.718-.984.569-2.128.225-1.126-.339-1.733-1.391m6.624 16.536-3.543 2.046-6.059-10.496 3.542-2.045zm-21.678 1.725 18.234-10.527q1.85-1.068 3.483-1.051a5.34 5.34 0 0 1 2.977.938q1.338.91 2.264 2.516.627 1.085.979 2.077.358 1.004.48 1.524l-4.028 1.204a7 7 0 0 0-.23-.783 5 5 0 0 0-.396-.864q-.601-1.04-1.324-1.169-.713-.134-1.577.364l-18.146 10.477zm1.64 17.568a11 11 0 0 1-.828-1.766q-.314-.851-.398-1.482l4.134-.97q.226.977.586 1.655.369.687.982.983.62.306 1.596.156l.879-.138 13.971-16.2 2.863 4.96-10.455 10.731.102.177 14.54-3.657 2.883 4.994-22.66 4.269q-1.647.317-3.139.086a6.15 6.15 0 0 1-2.766-1.134q-1.28-.915-2.29-2.664m-236.412-7.207L44.569 184.49l5.241-9.079q1.445-2.502 3.152-3.745t3.51-1.325q1.792-.087 3.497.898 1.33.767 2.03 1.88.69 1.107.794 2.407a6.9 6.9 0 0 1-.317 2.622l.221.127a5.86 5.86 0 0 1 2.13-2.002q1.335-.751 2.961-.756 1.617-.012 3.288.953 1.805 1.042 2.704 2.757.894 1.698.71 3.909t-1.654 4.757zm-1.151-7.057 2.256-3.908q1.156-2.004.924-3.364-.244-1.367-1.53-2.108-.94-.543-1.922-.505-.981.039-1.877.644-.889.593-1.554 1.745l-2.32 4.019zm-9.267-5.35 2.052-3.554q.569-.986.666-1.947.094-.98-.293-1.794-.38-.824-1.277-1.342-1.23-.71-2.486-.269-1.253.428-2.172 2.023l-2.103 3.642zm21.323-23.202-9.765-5.638 2.723-4.717 17.005 9.819-2.614 4.528-3.089-1.784-.102.178a5.8 5.8 0 0 1 1.297 3.302q.14 1.853-.965 3.768-.985 1.706-2.508 2.553t-3.373.754q-1.843-.105-3.843-1.245l-10.827-6.251 2.723-4.716 9.986 5.765q1.512.858 2.847.566 1.335-.291 2.108-1.631a3.9 3.9 0 0 0 .533-1.818 3.5 3.5 0 0 0-.483-1.874q-.507-.912-1.653-1.559m12.142-4.309-17.006-9.818 2.723-4.717 17.005 9.819zM72.46 144.21q-.607 1.051-1.74 1.402-1.137.333-2.122-.236-.975-.562-1.243-1.707a2.93 2.93 0 0 1 .333-2.214q.607-1.052 1.744-1.385 1.132-.35 2.106.213.986.569 1.26 1.731.27 1.144-.338 2.196m2.783-12.849 22.674 13.091-2.723 4.717-22.674-13.091zm28.75 3.206q-1.12 1.938-3.023 2.935-1.908.979-4.388.773-2.484-.223-5.329-1.866-2.923-1.687-4.317-3.747-1.406-2.066-1.467-4.184a7.4 7.4 0 0 1 1.014-4.005q.825-1.428 1.861-2.099 1.032-.689 2.09-.86 1.055-.189 1.92-.102l.083-.144-8.525-4.922 2.716-4.706 22.675 13.091-2.685 4.65-2.724-1.572-.115.199q.517.742.863 1.753.341.995.239 2.219-.096 1.215-.888 2.587m-2.89-3.661q.658-1.14.492-2.284-.172-1.162-1.057-2.235-.88-1.083-2.397-1.959t-2.878-1.101-2.43.221-1.728 1.586q-.67 1.163-.5 2.324t1.052 2.217q.882 1.054 2.355 1.905 1.483.856 2.86 1.105 1.372.231 2.468-.184 1.091-.432 1.763-1.595"/><defs><linearGradient id="a" x1="187.219" x2="187.219" y1="23.164" y2="242.715" gradientUnits="userSpaceOnUse"><stop stop-color="#4f46e5"/><stop offset="1" stop-color="#0d9488"/></linearGradient><filter id="b" width="398" height="348" x="-12" y="-16" color-interpolation-filters="sRGB" filterUnits="userSpaceOnUse"><feFlood flood-opacity="0" result="BackgroundImageFix"/><feBlend in="SourceGraphic" in2="BackgroundImageFix" result="shape"/><feGaussianBlur result="effect1_foregroundBlur_25_14" stdDeviation="5"><animate attributeName="stdDeviation" dur="4s" repeatCount="indefinite" values="3;8;3"/></feGaussianBlur></filter></defs></svg>
